views/1/public/assets/rub.svg

<svg clip-rule="evenodd" fill-rule="evenodd" height="512" image-rendering="optimizeQuality" shape-rendering="geometricPrecision" text-rendering="geometricPrecision" width="512" xmlns="http://www.w3.org/2000/svg"><path d="m232.5-.5h25c-102.961 11.3871-176.1276 64.0537-219.5 158-24.9469 62.243-25.9469 124.91-3 188 4.1287 9.251 7.962 18.585 11.5 28-4.8237 3.479-8.4904 7.813-11 13-14.5249-23.074-24.6916-48.074-30.5-75-2.08274-11.102-3.91607-22.102-5.5-33 0-15.333 0-30.667 0-46 10.8875-89.643 55.2208-157.1427 133-202.5 31.471-16.6947 64.804-26.8614 100-30.5z" fill="#f0cd01" opacity=".973"/><path d="m257.5-.5h21c29.053 3.09856 57.053 10.5986 84 22.5 8.548 3.7677 16.548 8.2677 24 13.5-1.052-.1495-2.052.0172-3 .5-13.535 13.3682-26.869 26.8682-40 40.5-30.638-14.5947-62.972-21.2614-97-20-81.59 6.8547-139.756 47.188-174.5 121-21.9118 55.998-20.4118 111.332 4.5 166-10.3604 9.694-20.3604 19.694-30 30-3.538-9.415-7.3713-18.749-11.5-28-22.9469-63.09-21.9469-125.757 3-188 43.3724-93.9463 116.539-146.6129 219.5-158z" fill="#fedd4f"/><path d="m386.5 35.5c15.432 8.3838 29.432 18.7172 42 31-13 13.6667-26.333 27-40 40-13.935-11.6023-28.935-21.6023-45-30 13.131-13.6318 26.465-27.1318 40-40.5.948-.4828 1.948-.6495 3-.5z" fill="#fee992"/><path d="m246.5 56.5c54.723 5.1947 100.39 28.1947 137 69-.039 1.083-.373 2.083-1 3-6.059 5.057-11.393 10.724-16 17-16.929-20.138-38.596-31.971-65-35.5-39.665-.5-79.332-.667-119-.5-9.747-.42-19.414.08-29 1.5-6.32 2.986-10.487 7.819-12.5 14.5-.5 43.665-.667 87.332-.5 131-6.342-.166-12.675 0-19 .5-14.457 5.747-18.957 15.914-13.5 30.5 3.1 5.3 7.6 8.8 13.5 10.5 6.325.5 12.658.666 19 .5v24c-6.675-.166-13.342 0-20 .5-13.723 6.277-17.89 16.443-12.5 30.5 3.1 5.3 7.6 8.8 13.5 10.5 6.325.5 12.658.666 19 .5v6c-8.325 7.825-16.492 15.825-24.5 24-.464.594-.631 1.261-.5 2-3-2.667-6-5.333-9-8-11.6023-13.935-21.6023-28.935-30-45-24.9118-54.668-26.4118-110.002-4.5-166 34.744-73.812 92.91-114.1453 174.5-121z" fill="#febc00"/><path d="m246.5 56.5c34.028-1.2614 66.362 5.4053 97 20 16.065 8.3977 31.065 18.3977 45 30 10.102 9.762 19.435 20.095 28 31 14.676 21.025 25.343 44.025 32 69 16.577 77.093-3.423 142.926-60 197.5-40.019 34.733-86.685 51.566-140 50.5 86.157-11.165 144.324-57.499 174.5-139 19.643-70.471 6.476-133.805-39.5-190-36.61-40.8053-82.277-63.8053-137-69z" fill="#f68f00"/><path d="m428.5 66.5c10.739 9.403 20.405 19.7363 29 31-14.282 12.614-27.948 25.947-41 40-8.565-10.905-17.898-21.238-28-31 13.667-13 27-26.3333 40-40z" fill="#fedd50"/><path d="m457.5 97.5c15.312 18.939 27.312 39.939 36 63-14.281 15.949-29.281 31.282-45 46-6.657-24.975-17.324-47.975-32-69 13.052-14.053 26.718-27.386 41-40z" fill="#fee992"/><path d="m182.5 109.5c-7.622 2.791-12.789 8.124-15.5 16-.5 43.665-.667 87.332-.5 131-6.342-.166-12.675 0-19 .5-15.973 6.918-19.807 18.085-11.5 33.5 3.269 3.383 7.103 5.883 11.5 7.5 6.325.5 12.658.666 19 .5v24c-6.342-.166-12.675 0-19 .5-15.149 6.133-19.316 16.633-12.5 31.5 3.266 4.255 7.432 7.422 12.5 9.5 6.325.5 12.658.666 19 .5-.166 8.007 0 16.007.5 24 1.206 5.416 3.706 10.082 7.5 14-15.463 7.791-26.63 3.791-33.5-12-.5-6.658-.666-13.325-.5-20 0-2 0-4 0-6-6.342.166-12.675 0-19-.5-5.9-1.7-10.4-5.2-13.5-10.5-5.39-14.057-1.223-24.223 12.5-30.5 6.658-.5 13.325-.666 20-.5 0-8 0-16 0-24-6.342.166-12.675 0-19-.5-5.9-1.7-10.4-5.2-13.5-10.5-5.457-14.586-.957-24.753 13.5-30.5 6.325-.5 12.658-.666 19-.5-.167-43.668 0-87.335.5-131 2.013-6.681 6.18-11.514 12.5-14.5 9.586-1.42 19.253-1.92 29-1.5z" fill="#f68e00"/><path d="m182.5 109.5c39.668-.167 79.335 0 119 .5 26.404 3.529 48.071 15.362 65 35.5 24.116 34.263 26.283 69.93 6.5 107-16.695 26.113-40.529 41.279-71.5 45.5-30.998.5-61.998.667-93 .5v24c26.002-.167 52.002 0 78 .5 16.224 6.942 20.057 18.109 11.5 33.5-3.453 3.645-7.62 6.145-12.5 7.5-25.665.5-51.331.667-77 .5.166 8.673 0 17.34-.5 26-4.192 12.182-12.692 17.349-25.5 15.5-2.836-.921-5.502-2.088-8-3.5-3.794-3.918-6.294-8.584-7.5-14-.5-7.993-.666-15.993-.5-24-6.342.166-12.675 0-19-.5-5.068-2.078-9.234-5.245-12.5-9.5-6.816-14.867-2.649-25.367 12.5-31.5 6.325-.5 12.658-.666 19-.5 0-8 0-16 0-24-6.342.166-12.675 0-19-.5-4.397-1.617-8.231-4.117-11.5-7.5-8.307-15.415-4.473-26.582 11.5-33.5 6.325-.5 12.658-.666 19-.5-.167-43.668 0-87.335.5-131 2.711-7.876 7.878-13.209 15.5-16z" fill="#fee993"/><path d="m383.5 125.5c45.976 56.195 59.143 119.529 39.5 190-30.176 81.501-88.343 127.835-174.5 139-14.224-.528-28.224-2.528-42-6-24.778-6.392-47.445-17.058-68-32-8.258-5.92-15.925-12.587-23-20-.131-.739.036-1.406.5-2 8.008-8.175 16.175-16.175 24.5-24-.166 6.675 0 13.342.5 20 6.87 15.791 18.037 19.791 33.5 12 2.498 1.412 5.164 2.579 8 3.5 12.808 1.849 21.308-3.318 25.5-15.5.5-8.66.666-17.327.5-26 25.669.167 51.335 0 77-.5 4.88-1.355 9.047-3.855 12.5-7.5 8.557-15.391 4.724-26.558-11.5-33.5-25.998-.5-51.998-.667-78-.5 0-8 0-16 0-24 31.002.167 62.002 0 93-.5 30.971-4.221 54.805-19.387 71.5-45.5 19.783-37.07 17.616-72.737-6.5-107 4.607-6.276 9.941-11.943 16-17 .627-.917.961-1.917 1-3z" fill="#faa300"/><path d="m272.5 151.5c22.983 4.162 37.65 17.495 44 40 .079 1.43-.254 2.764-1 4-20.56 20.112-40.894 40.445-61 61-15.333 0-30.667 0-46 0 0-35 0-70 0-105z" fill="#febd00"/><path d="m272.5 151.5c10.716-.344 21.382.156 32 1.5 19.727 5.393 32.56 17.893 38.5 37.5 4.428 23.058-2.405 41.892-20.5 56.5-5.274 3.47-10.94 6.136-17 8-11.29 1.326-22.623 1.826-34 1.5 23.06-4.22 38.227-17.553 45.5-40 2.144-8.525 1.977-16.859-.5-25-6.35-22.505-21.017-35.838-44-40z" fill="#f68f01"/><path d="m493.5 160.5c9.455 23.154 15.455 47.154 18 72v46c-10.888 89.644-55.221 157.144-133 202.5-31.471 16.695-64.804 26.861-100 30.5-7 0-14 0-21 0-31.139-2.833-61.139-10.499-90-23 13-13.333 26-26.667 39-40 13.776 3.472 27.776 5.472 42 6 53.315 1.066 99.981-15.767 140-50.5 56.577-54.574 76.577-120.407 60-197.5 15.719-14.718 30.719-30.051 45-46z" fill="#fedd4f"/><path d="m316.5 191.5c2.477 8.141 2.644 16.475.5 25-7.273 22.447-22.44 35.78-45.5 40-5.667 0-11.333 0-17 0 20.106-20.555 40.44-40.888 61-61 .746-1.236 1.079-2.57 1-4z" fill="#faa300"/><path d="m76.5 343.5c8.3977 16.065 18.3977 31.065 30 45-10 10.333-20 20.667-30 31-3.3333 3-6.6667 6-10 9-12.2828-12.568-22.6162-26.568-31-42 2.5096-5.187 6.1763-9.521 11-13 9.6396-10.306 19.6396-20.306 30-30z" fill="#fee992"/><path d="m106.5 388.5c3 2.667 6 5.333 9 8 7.075 7.413 14.742 14.08 23 20-.739-.131-1.406.036-2 .5-10.202 10.369-20.535 20.535-31 30.5-9.7405-9.41-19.4071-18.743-29-28 10-10.333 20-20.667 30-31z" fill="#fedd50"/><path d="m138.5 416.5c20.555 14.942 43.222 25.608 68 32-13 13.333-26 26.667-39 40-2.073 2.08-4.407 3.746-7 5-23.567-8.773-44.9-21.107-64-37 3.3333-2.667 6.333-5.667 9-9 10.465-9.965 20.798-20.131 31-30.5.594-.464 1.261-.631 2-.5z" fill="#fee992"/><path d="m76.5 419.5c9.5929 9.257 19.2595 18.59 29 28-2.667 3.333-5.6667 6.333-9 9-10.9298-8.261-20.9298-17.594-30-28 3.3333-3 6.6667-6 10-9z" fill="#f0cd03" opacity=".971"/><path d="m167.5 488.5c28.861 12.501 58.861 20.167 90 23-8.333 0-16.667 0-25 0-24.848-2.545-48.848-8.545-72-18 2.593-1.254 4.927-2.92 7-5z" fill="#f0ce06" opacity=".914"/></svg>

<?xml version="1.0" encoding="UTF-8"?>
<!DOCTYPE svg PUBLIC "-//W3C//DTD SVG 1.1//EN" "http://www.w3.org/Graphics/SVG/1.1/DTD/svg11.dtd">
<svg xmlns="http://www.w3.org/2000/svg" version="1.1" width="512px" height="512px" style="shape-rendering:geometricPrecision; text-rendering:geometricPrecision; image-rendering:optimizeQuality; fill-rule:evenodd; clip-rule:evenodd" xmlns:xlink="http://www.w3.org/1999/xlink">
<g><path style="opacity:0.973" fill="#f0cd01" d="M 232.5,-0.5 C 240.833,-0.5 249.167,-0.5 257.5,-0.5C 154.539,10.8871 81.3724,63.5537 38,157.5C 13.0531,219.743 12.0531,282.41 35,345.5C 39.1287,354.751 42.962,364.085 46.5,373.5C 41.6763,376.979 38.0096,381.313 35.5,386.5C 20.9751,363.426 10.8084,338.426 5,311.5C 2.91726,300.398 1.08393,289.398 -0.5,278.5C -0.5,263.167 -0.5,247.833 -0.5,232.5C 10.3875,142.857 54.7208,75.3573 132.5,30C 163.971,13.3053 197.304,3.1386 232.5,-0.5 Z"/></g>
<g><path style="opacity:1" fill="#fedd4f" d="M 257.5,-0.5 C 264.5,-0.5 271.5,-0.5 278.5,-0.5C 307.553,2.59856 335.553,10.0986 362.5,22C 371.048,25.7677 379.048,30.2677 386.5,35.5C 385.448,35.3505 384.448,35.5172 383.5,36C 369.965,49.3682 356.631,62.8682 343.5,76.5C 312.862,61.9053 280.528,55.2386 246.5,56.5C 164.91,63.3547 106.744,103.688 72,177.5C 50.0882,233.498 51.5882,288.832 76.5,343.5C 66.1396,353.194 56.1396,363.194 46.5,373.5C 42.962,364.085 39.1287,354.751 35,345.5C 12.0531,282.41 13.0531,219.743 38,157.5C 81.3724,63.5537 154.539,10.8871 257.5,-0.5 Z"/></g>
<g><path style="opacity:1" fill="#fee992" d="M 386.5,35.5 C 401.932,43.8838 415.932,54.2172 428.5,66.5C 415.5,80.1667 402.167,93.5 388.5,106.5C 374.565,94.8977 359.565,84.8977 343.5,76.5C 356.631,62.8682 369.965,49.3682 383.5,36C 384.448,35.5172 385.448,35.3505 386.5,35.5 Z"/></g>
<g><path style="opacity:1" fill="#febc00" d="M 246.5,56.5 C 301.223,61.6947 346.89,84.6947 383.5,125.5C 383.461,126.583 383.127,127.583 382.5,128.5C 376.441,133.557 371.107,139.224 366.5,145.5C 349.571,125.362 327.904,113.529 301.5,110C 261.835,109.5 222.168,109.333 182.5,109.5C 172.753,109.08 163.086,109.58 153.5,111C 147.18,113.986 143.013,118.819 141,125.5C 140.5,169.165 140.333,212.832 140.5,256.5C 134.158,256.334 127.825,256.5 121.5,257C 107.043,262.747 102.543,272.914 108,287.5C 111.1,292.8 115.6,296.3 121.5,298C 127.825,298.5 134.158,298.666 140.5,298.5C 140.5,306.5 140.5,314.5 140.5,322.5C 133.825,322.334 127.158,322.5 120.5,323C 106.777,329.277 102.61,339.443 108,353.5C 111.1,358.8 115.6,362.3 121.5,364C 127.825,364.5 134.158,364.666 140.5,364.5C 140.5,366.5 140.5,368.5 140.5,370.5C 132.175,378.325 124.008,386.325 116,394.5C 115.536,395.094 115.369,395.761 115.5,396.5C 112.5,393.833 109.5,391.167 106.5,388.5C 94.8977,374.565 84.8977,359.565 76.5,343.5C 51.5882,288.832 50.0882,233.498 72,177.5C 106.744,103.688 164.91,63.3547 246.5,56.5 Z"/></g>
<g><path style="opacity:1" fill="#f68f00" d="M 246.5,56.5 C 280.528,55.2386 312.862,61.9053 343.5,76.5C 359.565,84.8977 374.565,94.8977 388.5,106.5C 398.602,116.262 407.935,126.595 416.5,137.5C 431.176,158.525 441.843,181.525 448.5,206.5C 465.077,283.593 445.077,349.426 388.5,404C 348.481,438.733 301.815,455.566 248.5,454.5C 334.657,443.335 392.824,397.001 423,315.5C 442.643,245.029 429.476,181.695 383.5,125.5C 346.89,84.6947 301.223,61.6947 246.5,56.5 Z"/></g>
<g><path style="opacity:1" fill="#fedd50" d="M 428.5,66.5 C 439.239,75.903 448.905,86.2363 457.5,97.5C 443.218,110.114 429.552,123.447 416.5,137.5C 407.935,126.595 398.602,116.262 388.5,106.5C 402.167,93.5 415.5,80.1667 428.5,66.5 Z"/></g>
<g><path style="opacity:1" fill="#fee992" d="M 457.5,97.5 C 472.812,116.439 484.812,137.439 493.5,160.5C 479.219,176.449 464.219,191.782 448.5,206.5C 441.843,181.525 431.176,158.525 416.5,137.5C 429.552,123.447 443.218,110.114 457.5,97.5 Z"/></g>
<g><path style="opacity:1" fill="#f68e00" d="M 182.5,109.5 C 174.878,112.291 169.711,117.624 167,125.5C 166.5,169.165 166.333,212.832 166.5,256.5C 160.158,256.334 153.825,256.5 147.5,257C 131.527,263.918 127.693,275.085 136,290.5C 139.269,293.883 143.103,296.383 147.5,298C 153.825,298.5 160.158,298.666 166.5,298.5C 166.5,306.5 166.5,314.5 166.5,322.5C 160.158,322.334 153.825,322.5 147.5,323C 132.351,329.133 128.184,339.633 135,354.5C 138.266,358.755 142.432,361.922 147.5,364C 153.825,364.5 160.158,364.666 166.5,364.5C 166.334,372.507 166.5,380.507 167,388.5C 168.206,393.916 170.706,398.582 174.5,402.5C 159.037,410.291 147.87,406.291 141,390.5C 140.5,383.842 140.334,377.175 140.5,370.5C 140.5,368.5 140.5,366.5 140.5,364.5C 134.158,364.666 127.825,364.5 121.5,364C 115.6,362.3 111.1,358.8 108,353.5C 102.61,339.443 106.777,329.277 120.5,323C 127.158,322.5 133.825,322.334 140.5,322.5C 140.5,314.5 140.5,306.5 140.5,298.5C 134.158,298.666 127.825,298.5 121.5,298C 115.6,296.3 111.1,292.8 108,287.5C 102.543,272.914 107.043,262.747 121.5,257C 127.825,256.5 134.158,256.334 140.5,256.5C 140.333,212.832 140.5,169.165 141,125.5C 143.013,118.819 147.18,113.986 153.5,111C 163.086,109.58 172.753,109.08 182.5,109.5 Z"/></g>
<g><path style="opacity:1" fill="#fee993" d="M 182.5,109.5 C 222.168,109.333 261.835,109.5 301.5,110C 327.904,113.529 349.571,125.362 366.5,145.5C 390.616,179.763 392.783,215.43 373,252.5C 356.305,278.613 332.471,293.779 301.5,298C 270.502,298.5 239.502,298.667 208.5,298.5C 208.5,306.5 208.5,314.5 208.5,322.5C 234.502,322.333 260.502,322.5 286.5,323C 302.724,329.942 306.557,341.109 298,356.5C 294.547,360.145 290.38,362.645 285.5,364C 259.835,364.5 234.169,364.667 208.5,364.5C 208.666,373.173 208.5,381.84 208,390.5C 203.808,402.682 195.308,407.849 182.5,406C 179.664,405.079 176.998,403.912 174.5,402.5C 170.706,398.582 168.206,393.916 167,388.5C 166.5,380.507 166.334,372.507 166.5,364.5C 160.158,364.666 153.825,364.5 147.5,364C 142.432,361.922 138.266,358.755 135,354.5C 128.184,339.633 132.351,329.133 147.5,323C 153.825,322.5 160.158,322.334 166.5,322.5C 166.5,314.5 166.5,306.5 166.5,298.5C 160.158,298.666 153.825,298.5 147.5,298C 143.103,296.383 139.269,293.883 136,290.5C 127.693,275.085 131.527,263.918 147.5,257C 153.825,256.5 160.158,256.334 166.5,256.5C 166.333,212.832 166.5,169.165 167,125.5C 169.711,117.624 174.878,112.291 182.5,109.5 Z"/></g>
<g><path style="opacity:1" fill="#faa300" d="M 383.5,125.5 C 429.476,181.695 442.643,245.029 423,315.5C 392.824,397.001 334.657,443.335 248.5,454.5C 234.276,453.972 220.276,451.972 206.5,448.5C 181.722,442.108 159.055,431.442 138.5,416.5C 130.242,410.58 122.575,403.913 115.5,396.5C 115.369,395.761 115.536,395.094 116,394.5C 124.008,386.325 132.175,378.325 140.5,370.5C 140.334,377.175 140.5,383.842 141,390.5C 147.87,406.291 159.037,410.291 174.5,402.5C 176.998,403.912 179.664,405.079 182.5,406C 195.308,407.849 203.808,402.682 208,390.5C 208.5,381.84 208.666,373.173 208.5,364.5C 234.169,364.667 259.835,364.5 285.5,364C 290.38,362.645 294.547,360.145 298,356.5C 306.557,341.109 302.724,329.942 286.5,323C 260.502,322.5 234.502,322.333 208.5,322.5C 208.5,314.5 208.5,306.5 208.5,298.5C 239.502,298.667 270.502,298.5 301.5,298C 332.471,293.779 356.305,278.613 373,252.5C 392.783,215.43 390.616,179.763 366.5,145.5C 371.107,139.224 376.441,133.557 382.5,128.5C 383.127,127.583 383.461,126.583 383.5,125.5 Z"/></g>
<g><path style="opacity:1" fill="#febd00" d="M 272.5,151.5 C 295.483,155.662 310.15,168.995 316.5,191.5C 316.579,192.93 316.246,194.264 315.5,195.5C 294.94,215.612 274.606,235.945 254.5,256.5C 239.167,256.5 223.833,256.5 208.5,256.5C 208.5,221.5 208.5,186.5 208.5,151.5C 229.833,151.5 251.167,151.5 272.5,151.5 Z"/></g>
<g><path style="opacity:1" fill="#f68f01" d="M 272.5,151.5 C 283.216,151.156 293.882,151.656 304.5,153C 324.227,158.393 337.06,170.893 343,190.5C 347.428,213.558 340.595,232.392 322.5,247C 317.226,250.47 311.56,253.136 305.5,255C 294.21,256.326 282.877,256.826 271.5,256.5C 294.56,252.28 309.727,238.947 317,216.5C 319.144,207.975 318.977,199.641 316.5,191.5C 310.15,168.995 295.483,155.662 272.5,151.5 Z"/></g>
<g><path style="opacity:1" fill="#fedd4f" d="M 493.5,160.5 C 502.955,183.654 508.955,207.654 511.5,232.5C 511.5,247.833 511.5,263.167 511.5,278.5C 500.612,368.144 456.279,435.644 378.5,481C 347.029,497.695 313.696,507.861 278.5,511.5C 271.5,511.5 264.5,511.5 257.5,511.5C 226.361,508.667 196.361,501.001 167.5,488.5C 180.5,475.167 193.5,461.833 206.5,448.5C 220.276,451.972 234.276,453.972 248.5,454.5C 301.815,455.566 348.481,438.733 388.5,404C 445.077,349.426 465.077,283.593 448.5,206.5C 464.219,191.782 479.219,176.449 493.5,160.5 Z"/></g>
<g><path style="opacity:1" fill="#faa300" d="M 316.5,191.5 C 318.977,199.641 319.144,207.975 317,216.5C 309.727,238.947 294.56,252.28 271.5,256.5C 265.833,256.5 260.167,256.5 254.5,256.5C 274.606,235.945 294.94,215.612 315.5,195.5C 316.246,194.264 316.579,192.93 316.5,191.5 Z"/></g>
<g><path style="opacity:1" fill="#fee992" d="M 76.5,343.5 C 84.8977,359.565 94.8977,374.565 106.5,388.5C 96.5,398.833 86.5,409.167 76.5,419.5C 73.1667,422.5 69.8333,425.5 66.5,428.5C 54.2172,415.932 43.8838,401.932 35.5,386.5C 38.0096,381.313 41.6763,376.979 46.5,373.5C 56.1396,363.194 66.1396,353.194 76.5,343.5 Z"/></g>
<g><path style="opacity:1" fill="#fedd50" d="M 106.5,388.5 C 109.5,391.167 112.5,393.833 115.5,396.5C 122.575,403.913 130.242,410.58 138.5,416.5C 137.761,416.369 137.094,416.536 136.5,417C 126.298,427.369 115.965,437.535 105.5,447.5C 95.7595,438.09 86.0929,428.757 76.5,419.5C 86.5,409.167 96.5,398.833 106.5,388.5 Z"/></g>
<g><path style="opacity:1" fill="#fee992" d="M 138.5,416.5 C 159.055,431.442 181.722,442.108 206.5,448.5C 193.5,461.833 180.5,475.167 167.5,488.5C 165.427,490.58 163.093,492.246 160.5,493.5C 136.933,484.727 115.6,472.393 96.5,456.5C 99.8333,453.833 102.833,450.833 105.5,447.5C 115.965,437.535 126.298,427.369 136.5,417C 137.094,416.536 137.761,416.369 138.5,416.5 Z"/></g>
<g><path style="opacity:0.971" fill="#f0cd03" d="M 76.5,419.5 C 86.0929,428.757 95.7595,438.09 105.5,447.5C 102.833,450.833 99.8333,453.833 96.5,456.5C 85.5702,448.239 75.5702,438.906 66.5,428.5C 69.8333,425.5 73.1667,422.5 76.5,419.5 Z"/></g>
<g><path style="opacity:0.914" fill="#f0ce06" d="M 167.5,488.5 C 196.361,501.001 226.361,508.667 257.5,511.5C 249.167,511.5 240.833,511.5 232.5,511.5C 207.652,508.955 183.652,502.955 160.5,493.5C 163.093,492.246 165.427,490.58 167.5,488.5 Z"/></g>
</svg>
